**kern	**kern	**dynam
*part1	*part1	*part1
*staff2	*staff1	*
*I"Piano	*	*
*clefF4	*clefG2	*
*k[b-e-a-]	*k[b-e-a-]	*
=1	=1	=1
*^	*^	*
4G	8DL	8bnL	4f	.
.	8BBn	8dd	.	.
8GL	8C	8cc	8fL	.
8GJ	8DJ	8bJ	8fJ	.
*v	*v	*	*	*
=	=	=	=
!	!LO:TX:b:i:t=cresc.	!	!
4C 4G	4b-X 4cc	(8fL	.
.	.	8en)	.
8CL 8G	8b-L 8cc	8e	.
8CJ 8G	8b-J 8cc	8eJ	.
*	*v	*v	*
=	=	=
4C 4G	4en 4b- 4cc	.
8CL 8An	8eL 8an 8cc	.
8CJ 8B-	8eJ 8a 8cc	.
=	=	=
*	*^	*
4F 4e-X	4f 4cc	(8b-L	<
.	.	8anJ)	.
*	*v	*v	*
8FL 8e-	8fL 8a 8cc	.
8FJ 8e-	8fJ 8a 8cc	.
=	=	=
*^	*^	*
8e-L	4F	8ccL	4f 4an	[ >
8d	.	8dd	.	.
8c	8FL	8ee-	8fL 8a	.
8cJ	8FJ	8ffJ	8fJ 8a	.
*v	*v	*	*	*
*	*v	*v	*
=	=	=
!	!LO:TX:b:i:t=decresc.	!
4BB- 4B-	4f 4a-X 4ee-	]
8B-L	8fL 8a- 8dd	.
8B-J	8fJ 8a- 8dd	.
=	=	=
4B-	4f 4a- 4dd	.
8B-L 8f	8a-L 8dd	.
8B-J 8f	8a-J 8dd	.
=	=	=
4B- 4f	4a- 4dd	.
8B-L 8e-	8a-L 8ee-	.
8B-J 8d	8a-J 8ff	.
=	=	=
*-	*-	*-
!!!system-decoration: {(s1,s2)}
